X: 263
T: Jiao gaor
L: 1/8
M: 2/4
K: C
C2C2 [I:setbarnb 1]| 
A, C A, G, | 
G A/ G/F2 | 
A2A A | 
G A E D | 
C D/ A,/C2 | 
F DF2 | 
GA2G | 
F3G | 
D CA,2 | 
D D D E | 
D CA,2 | 
C3D | 
C4 |]

@@@ Tune index: 9137
